public/images/logo-black.svg

<svg viewBox="0 0 182.05 173.64" xmlns="http://www.w3.org/2000/svg"><path d="m157.16 83.44c9.77-1.33 16.53-8.74 18.08-18.48h-34.31z"/><path d="m6.82 65c1.54 9.74 8.3 17.15 18.07 18.48l16.24-18.48z"/><path d="m66.56 145.34 9.31-15.07-23.16-40.23 22.05-25.08h-27.37l-16.03 18.48 3.93 12.17 21.95 36.4-7.32 12.2 14.87 26.17 6.58-17.57z"/><path d="m116.39 65-3.78 6 16.73 19-23.16 40.23 9.31 15.07-6.79 10.53h-26.81l-11.89 17.81h45.38l16.72-29.43-7.29-12.21 21.95-36.4 4.09-12.18-16.22-18.42z"/><path d="m28.76 60.61h60.24l10-22.12h-71.54a22.15 22.15 0 0 1 -4.36-38.49 30.83 30.83 0 0 0 5.66 60.61z"/><path d="m159 0a22.15 22.15 0 0 1 -4.36 38.49h-22.23l-13.29 22.12h34.17a30.83 30.83 0 0 0 5.71-60.61z"/><path d="m103.2 38.49-31.49 69.42 19.37-.44-23.18 64.11 51.18-78.92-23.45.53 32.38-54.7z"/></svg>

<svg xmlns="http://www.w3.org/2000/svg" viewBox="0 0 182.05 173.64"><title>Asset 51</title><g id="Layer_2" data-name="Layer 2"><g id="Layer_1-2" data-name="Layer 1"><path d="M157.16,83.44c9.77-1.33,16.53-8.74,18.08-18.48H140.93Z"/><path d="M6.82,65c1.54,9.74,8.3,17.15,18.07,18.48L41.13,65Z"/><polygon points="66.56 145.34 75.87 130.27 52.71 90.04 74.76 64.96 47.39 64.96 31.36 83.44 35.29 95.61 57.24 132.01 49.92 144.21 64.79 170.38 71.37 152.81 66.56 145.34"/><path d="M116.39,65l-3.78,6,16.73,19-23.16,40.23,9.31,15.07-6.79,10.53H81.89L70,173.64h45.38l16.72-29.43L124.81,132l21.95-36.4,4.09-12.18L134.63,65Z"/><path d="M28.76,60.61H89l10-22.12H27.46A22.15,22.15,0,0,1,23.1,0a30.83,30.83,0,0,0,5.66,60.61Z"/><path d="M159,0a22.15,22.15,0,0,1-4.36,38.49H132.41L119.12,60.61h34.17A30.83,30.83,0,0,0,159,0Z"/><polygon points="103.2 38.49 71.71 107.91 91.08 107.47 67.9 171.58 119.08 92.66 95.63 93.19 128.01 38.49 103.2 38.49"/></g></g></svg>
